StripePaymentsUI/StripePaymentsUI/Resources/StripePaymentsUI.xcassets/CardsNoPadding/stp_card_unpadded_visa.imageset/visaNoPadding.svg

<svg fill="none" height="16" viewBox="0 0 24 16" width="24" xmlns="http://www.w3.org/2000/svg"><path d="m21.9574 0h-19.91485c-1.128068 0-2.04255.924315-2.04255 2.06452v11.87098c0 1.1402.914482 2.0645 2.04255 2.0645h19.91485c1.1281 0 2.0426-.9243 2.0426-2.0645v-11.87098c0-1.140205-.9145-2.06452-2.0426-2.06452z" fill="#fff"/><path d="m2.04255.25h19.91485c.9875 0 1.7926.80986 1.7926 1.81452v11.87098c0 1.0046-.8051 1.8145-1.7926 1.8145h-19.91485c-.98748 0-1.79255-.8099-1.79255-1.8145v-11.87098c0-1.00466.80507-1.81452 1.79255-1.81452z" stroke="#000" stroke-opacity=".2" stroke-width=".5"/><path d="m2.82577 5.94394c-.53427-.29619-1.14403-.5344-1.82577-.69971l.0286-.12874h2.79521c.37888.01342.68631.12865.78635.53557l.60747 2.92736.1861.88168 1.70143-4.34461h1.83709l-2.7308 6.36451h-1.83719zm7.46783 5.54286h-1.73735l1.08666-6.37131h1.73729zm6.298-6.21555-.2363 1.37581-.1571-.06766c-.3144-.12882-.7293-.25756-1.2942-.24395-.6859 0-.9935.27773-1.0006.54889 0 .29828.3721.49485.9797.78637 1.001.45413 1.4653 1.00987 1.4584 1.73516-.0141 1.32173-1.2009 2.17583-3.0238 2.17583-.7794-.0068-1.5302-.163-1.9376-.339l.2431-1.43027.2287.1018c.5648.23747.9365.33887 1.6301.33887.5002 0 1.0365-.1967 1.0434-.62354 0-.27792-.2285-.48143-.9007-.79322-.6576-.30512-1.5369-.81339-1.5226-1.72849.0074-1.24031 1.2156-2.10785 2.9313-2.10785.672 0 1.2155.14234 1.5582.27125zm2.3091 3.95841h1.444c-.0714-.31854-.4004-1.84362-.4004-1.84362l-.1214-.54899c-.0858.2372-.2358.62358-.2286.60998 0 0-.5505 1.41661-.6936 1.78263zm2.1445-4.11417 1.4016 6.37121h-1.6086s-.1574-.732-.2073-.9557h-2.2306c-.0645.1693-.3646.9557-.3646.9557h-1.823l2.5806-5.84258c.1788-.4135.4937-.52863.9081-.52863z" fill="#1434cb"/></svg>

<svg width="24" height="16" viewBox="0 0 24 16" fill="none" xmlns="http://www.w3.org/2000/svg">
<path d="M21.9574 0H2.04255C0.914482 0 0 0.924315 0 2.06452V13.9355C0 15.0757 0.914482 16 2.04255 16H21.9574C23.0855 16 24 15.0757 24 13.9355V2.06452C24 0.924315 23.0855 0 21.9574 0Z" fill="white"/>
<path d="M2.04255 0.25H21.9574C22.9449 0.25 23.75 1.05986 23.75 2.06452V13.9355C23.75 14.9401 22.9449 15.75 21.9574 15.75H2.04255C1.05507 15.75 0.25 14.9401 0.25 13.9355V2.06452C0.25 1.05986 1.05507 0.25 2.04255 0.25Z" stroke="black" stroke-opacity="0.2" stroke-width="0.5"/>
<path d="M2.82577 5.94394C2.2915 5.64775 1.68174 5.40954 1 5.24423L1.0286 5.11549H3.82381C4.20269 5.12891 4.51012 5.24414 4.61016 5.65106L5.21763 8.57842L5.40373 9.4601L7.10516 5.11549H8.94225L6.21145 11.48H4.37426L2.82577 5.94394ZM10.2936 11.4868H8.55625L9.64291 5.11549H11.3802L10.2936 11.4868ZM16.5916 5.27125L16.3553 6.64706L16.1982 6.5794C15.8838 6.45058 15.4689 6.32184 14.904 6.33545C14.2181 6.33545 13.9105 6.61318 13.9034 6.88434C13.9034 7.18262 14.2755 7.37919 14.8831 7.67071C15.8841 8.12484 16.3484 8.68058 16.3415 9.40587C16.3274 10.7276 15.1406 11.5817 13.3177 11.5817C12.5383 11.5749 11.7875 11.4187 11.3801 11.2427L11.6232 9.81243L11.8519 9.91423C12.4167 10.1517 12.7884 10.2531 13.482 10.2531C13.9822 10.2531 14.5185 10.0564 14.5254 9.62956C14.5254 9.35164 14.2969 9.14813 13.6247 8.83634C12.9671 8.53122 12.0878 8.02295 12.1021 7.10785C12.1095 5.86754 13.3177 5 15.0334 5C15.7054 5 16.2489 5.14234 16.5916 5.27125ZM18.9007 9.22966H20.3447C20.2733 8.91112 19.9443 7.38604 19.9443 7.38604L19.8229 6.83705C19.7371 7.07425 19.5871 7.46063 19.5943 7.44703C19.5943 7.44703 19.0438 8.86364 18.9007 9.22966ZM21.0452 5.11549L22.4468 11.4867H20.8382C20.8382 11.4867 20.6808 10.7547 20.6309 10.531H18.4003C18.3358 10.7003 18.0357 11.4867 18.0357 11.4867H16.2127L18.7933 5.64412C18.9721 5.23062 19.287 5.11549 19.7014 5.11549H21.0452Z" fill="#1434CB"/>
</svg>
